lg/aws-lake-formation.svg

<svg viewBox="0 0 256 256" version="1.1" xmlns="http://www.w3.org/2000/svg" preserveAspectRatio="xMidYMid" height="1em" width="1em">
  <defs>
    <linearGradient x1="0%" y1="100%" x2="100%" y2="0%" id="a">
      <stop stop-color="#4D27A8" offset="0%"/>
      <stop stop-color="#A166FF" offset="100%"/>
    </linearGradient>
  </defs>
  <g>
    <rect fill="url(#a)" x="0" y="0" width="256" height="256"/>
    <path d="M172.599071,144.6752 C175.04062,147.5232 178.666144,149.3312 182.70126,149.3312 C190.035508,149.3312 196.000183,143.3632 196.000183,136.0288 L189.600317,136.0288 C189.600317,139.8368 186.505981,142.9312 182.70126,142.9312 C178.89654,142.9312 175.799004,139.8368 175.799004,136.0288 L169.399138,136.0288 C169.399138,139.8368 166.304802,142.9312 162.500081,142.9312 C158.692161,142.9312 155.597825,139.8368 155.597825,136.0288 L149.197958,136.0288 C149.197958,139.8368 146.100423,142.9312 142.295702,142.9312 C138.490981,142.9312 135.393446,139.8368 135.393446,136.0288 L128.993579,136.0288 C128.993579,139.8368 125.896044,142.9312 122.094523,142.9312 L122.094523,149.3312 C126.132839,149.3312 129.751964,147.5232 132.193513,144.6752 C134.635062,147.5232 138.260586,149.3312 142.295702,149.3312 C146.334018,149.3312 149.956343,147.5232 152.397892,144.6752 C154.836241,147.5232 158.461765,149.3312 162.500081,149.3312 C166.535197,149.3312 170.157522,147.5232 172.599071,144.6752 L172.599071,144.6752 Z M169.789529,101.136 L163.389663,101.136 C163.389663,104.9408 160.292127,108.0352 156.487406,108.0352 C152.682686,108.0352 149.58835,104.9408 149.58835,101.136 L143.188484,101.136 C143.188484,104.9408 140.090948,108.0352 136.283028,108.0352 C132.481507,108.0352 129.383971,104.9408 129.383971,101.136 L122.984105,101.136 C122.984105,104.9408 119.886569,108.0352 116.085048,108.0352 L116.085048,114.4352 C120.123364,114.4352 123.742489,112.6272 126.184038,109.7792 C128.625587,112.6272 132.247911,114.4352 136.283028,114.4352 C140.321343,114.4352 143.946868,112.6272 146.388417,109.7792 C148.826766,112.6272 152.449091,114.4352 156.487406,114.4352 C160.525722,114.4352 164.148047,112.6272 166.589596,109.7792 C169.031145,112.6272 172.65347,114.4352 176.688586,114.4352 L176.688586,108.0352 C172.887065,108.0352 169.789529,104.9408 169.789529,101.136 L169.789529,101.136 Z M119.057786,188.5536 C123.092902,188.5536 126.715227,186.7456 129.156776,183.8976 C131.598325,186.7456 135.22065,188.5536 139.258965,188.5536 C143.297281,188.5536 146.919606,186.7456 149.357955,183.8976 C151.799504,186.7456 155.421829,188.5536 159.460145,188.5536 L159.460145,182.1536 C155.655424,182.1536 152.557888,179.0592 152.557888,175.2544 L146.158022,175.2544 C146.158022,179.0592 143.063686,182.1536 139.258965,182.1536 C135.454245,182.1536 132.356709,179.0592 132.356709,175.2544 L125.956843,175.2544 C125.956843,179.0592 122.859307,182.1536 119.057786,182.1536 C115.249866,182.1536 112.15233,179.0592 112.15233,175.2544 L105.752463,175.2544 C105.752463,179.0592 102.658128,182.1536 98.8534074,182.1536 L98.8534074,188.5536 C102.891723,188.5536 106.514048,186.7456 108.952397,183.8976 C111.393946,186.7456 115.01947,188.5536 119.057786,188.5536 L119.057786,188.5536 Z M73.6027331,64 L76.8026666,64 L76.8026666,60.8 L73.6027331,60.8 L73.6027331,64 Z M67.1996666,67.2 L67.1996666,57.6 C67.1996666,55.8304 68.6332368,54.4 70.4028,54.4 L80.0026,54.4 C81.7689632,54.4 83.2025334,55.8304 83.2025334,57.6 L83.2025334,67.2 C83.2025334,68.9664 81.7689632,70.4 80.0026,70.4 L70.4028,70.4 C68.6332368,70.4 67.1996666,68.9664 67.1996666,67.2 L67.1996666,67.2 Z M92.8023334,51.2 L96.0022666,51.2 L96.0022666,48 L92.8023334,48 L92.8023334,51.2 Z M86.4024666,54.4 L86.4024666,44.8 C86.4024666,43.0304 87.8328368,41.6 89.6024,41.6 L99.2022,41.6 C100.968563,41.6 102.402133,43.0304 102.402133,44.8 L102.402133,54.4 C102.402133,56.1664 100.968563,57.6 99.2022,57.6 L89.6024,57.6 C87.8328368,57.6 86.4024666,56.1664 86.4024666,54.4 L86.4024666,54.4 Z M96.0022666,73.6 L99.2022,73.6 L99.2022,70.4 L96.0022666,70.4 L96.0022666,73.6 Z M102.402133,64 C104.168497,64 105.602067,65.4304 105.602067,67.2 L105.602067,76.8 C105.602067,78.5664 104.168497,80 102.402133,80 L92.8023334,80 C91.0327702,80 89.6024,78.5664 89.6024,76.8 L89.6024,67.2 C89.6024,65.4304 91.0327702,64 92.8023334,64 L102.402133,64 Z M90.2007875,89.84 C86.952855,89.84 74.8699069,89.7152 65.746897,88.0416 L85.9032771,119.888 C86.2296701,120.4 86.4024666,120.992 86.4024666,121.6 L86.4024666,125.6352 C88.6200205,126.1664 90.7159766,126.1824 92.8023334,125.6768 L92.8023334,121.6 C92.8023334,120.9952 92.9719296,120.4032 93.2951229,119.888 L114.293085,88.096 C107.250032,89.344 97.9702256,89.84 90.2007875,89.84 L90.2007875,89.84 Z M54.611129,81.8144 C54.5887293,81.664 54.5599299,81.3792 54.5599299,81.2288 C54.5599299,79.2608 54.5599299,73.2736 86.3384678,72.6528 L86.4632653,79.0528 C76.2298784,79.2512 68.6652362,80.2272 64.3549261,81.2288 C69.0620278,82.3264 77.7946461,83.44 90.2007875,83.44 C102.152539,83.44 111.080353,82.3648 115.98905,81.2256 C114.350684,80.8384 112.078732,80.416 108.949197,80.0352 L109.726781,73.6832 C121.169742,75.0784 125.838445,77.2672 125.838445,81.2288 C125.838445,82.0736 125.534452,83.232 124.449674,84.3392 L99.2022,122.5248 L99.2022,128 C99.2022,129.3056 98.4054166,130.48 97.1958416,130.9664 C94.7350931,131.9552 92.2647446,132.448 89.7431971,132.448 C87.253649,132.448 84.7161018,131.9648 82.0953565,131.0016 C80.8377824,130.5376 80.0026,129.3408 80.0026,128 L80.0026,122.528 L55.4399117,83.7184 C55.4335117,83.7088 55.427112,83.6992 55.420712,83.6896 L55.3951126,83.6448 L54.9183226,82.8896 L54.9663216,82.8576 C54.7935251,82.5312 54.6655277,82.1824 54.611129,81.8144 L54.611129,81.8144 Z M86.4024666,144 L86.4024666,134.4 L80.0026,134.4 L80.0026,140.8 L73.6027331,140.8 C72.361159,140.8 71.2283827,141.5168 70.7035936,142.64 C70.1756048,143.7664 70.348401,145.0944 71.1419846,146.048 L87.1416512,165.248 C87.7496384,165.9776 88.6520198,166.4 89.6024,166.4 C90.5495802,166.4 91.4519613,165.9776 92.0599488,165.248 L108.059615,146.048 C108.853199,145.0944 109.025995,143.7664 108.498006,142.64 C107.973217,141.5168 106.840441,140.8 105.602067,140.8 L99.2022,140.8 L99.2022,134.4 L92.8023334,134.4 L92.8023334,144 C92.8023334,145.7664 94.2327034,147.2 96.0022666,147.2 L98.770209,147.2 L89.6024,158.2016 L80.431391,147.2 L83.2025334,147.2 C84.9688966,147.2 86.4024666,145.7664 86.4024666,144 L86.4024666,144 Z M204.8,137.6 C204.8,179.9456 170.346318,214.4 127.9984,214.4 C85.6536822,214.4 51.2,179.9456 51.2,137.6 C51.2,125.8944 53.7663466,114.6592 58.8222413,104.2048 L64.5853213,106.992 C59.9518176,116.5696 57.5998666,126.8672 57.5998666,137.6 C57.5998666,176.416 89.1832086,208 127.9984,208 C166.816791,208 198.400133,176.416 198.400133,137.6 C198.400133,98.7808 166.816791,67.2 127.9984,67.2 C123.883286,67.2 119.764972,67.5552 115.752255,68.2592 L114.648278,61.9552 C119.022587,61.1872 123.515293,60.8 127.9984,60.8 C170.346318,60.8 204.8,95.2512 204.8,137.6 L204.8,137.6 Z" fill="#FFFFFF"/>
  </g>
</svg>

<svg viewBox="0 0 256 256" xmlns="http://www.w3.org/2000/svg" preserveAspectRatio="xMidYMid" height="1em" width="1em">
  <defs>
    <linearGradient x1="0%" y1="100%" x2="100%" y2="0%" id="a">
      <stop stop-color="#4D27A8" offset="0%"/>
      <stop stop-color="#A166FF" offset="100%"/>
    </linearGradient>
  </defs>
  <path fill="url(#a)" d="M0 0h256v256H0z"/>
  <path d="M172.6 144.675a13.283 13.283 0 0 0 10.101 4.656c7.335 0 13.3-5.968 13.3-13.302h-6.4a6.907 6.907 0 0 1-6.9 6.902 6.91 6.91 0 0 1-6.902-6.902h-6.4a6.906 6.906 0 0 1-6.899 6.902 6.908 6.908 0 0 1-6.902-6.902h-6.4a6.91 6.91 0 0 1-6.902 6.902 6.91 6.91 0 0 1-6.903-6.902h-6.4c0 3.808-3.097 6.902-6.898 6.902v6.4c4.038 0 7.657-1.808 10.099-4.656a13.283 13.283 0 0 0 10.102 4.656 13.28 13.28 0 0 0 10.102-4.656 13.273 13.273 0 0 0 10.102 4.656 13.28 13.28 0 0 0 10.1-4.656Zm-2.81-43.539h-6.4c0 3.805-3.098 6.9-6.903 6.9a6.906 6.906 0 0 1-6.899-6.9h-6.4c0 3.805-3.097 6.9-6.905 6.9-3.801 0-6.899-3.095-6.899-6.9h-6.4c0 3.805-3.097 6.9-6.899 6.9v6.4c4.038 0 7.657-1.809 10.099-4.657a13.277 13.277 0 0 0 10.099 4.656c4.038 0 7.664-1.808 10.105-4.656a13.267 13.267 0 0 0 10.1 4.656 13.28 13.28 0 0 0 10.102-4.656 13.277 13.277 0 0 0 10.099 4.656v-6.4c-3.802 0-6.9-3.094-6.9-6.899Zm-50.732 87.418c4.035 0 7.657-1.808 10.099-4.656a13.278 13.278 0 0 0 10.102 4.656c4.038 0 7.66-1.808 10.099-4.656a13.278 13.278 0 0 0 10.102 4.656v-6.4c-3.805 0-6.902-3.095-6.902-6.9h-6.4c0 3.805-3.094 6.9-6.899 6.9s-6.902-3.095-6.902-6.9h-6.4c0 3.805-3.098 6.9-6.9 6.9-3.807 0-6.905-3.095-6.905-6.9h-6.4c0 3.805-3.094 6.9-6.899 6.9v6.4c4.039 0 7.661-1.808 10.1-4.656a13.285 13.285 0 0 0 10.105 4.656ZM73.603 64h3.2v-3.2h-3.2V64ZM67.2 67.2v-9.6a3.2 3.2 0 0 1 3.203-3.2h9.6a3.2 3.2 0 0 1 3.2 3.2v9.6c0 1.766-1.434 3.2-3.2 3.2h-9.6a3.202 3.202 0 0 1-3.203-3.2Zm25.602-16h3.2V48h-3.2v3.2Zm-6.4 3.2v-9.6c0-1.77 1.43-3.2 3.2-3.2h9.6a3.2 3.2 0 0 1 3.2 3.2v9.6c0 1.766-1.433 3.2-3.2 3.2h-9.6a3.2 3.2 0 0 1-3.2-3.2Zm9.6 19.2h3.2v-3.2h-3.2v3.2Zm6.4-9.6a3.2 3.2 0 0 1 3.2 3.2v9.6c0 1.766-1.434 3.2-3.2 3.2h-9.6a3.2 3.2 0 0 1-3.2-3.2v-9.6c0-1.77 1.43-3.2 3.2-3.2h9.6ZM90.201 89.84c-3.248 0-15.331-.125-24.454-1.798l20.156 31.846c.327.512.5 1.104.5 1.712v4.035c2.217.531 4.313.547 6.4.042V121.6c0-.605.169-1.197.492-1.712l20.998-31.792c-7.043 1.248-16.323 1.744-24.092 1.744Zm-35.59-8.026a5.166 5.166 0 0 1-.051-.585c0-1.968 0-7.955 31.778-8.576l.125 6.4c-10.233.198-17.798 1.174-22.108 2.176 4.707 1.097 13.44 2.211 25.846 2.211 11.952 0 20.88-1.075 25.788-2.214-1.638-.388-3.91-.81-7.04-1.19l.778-6.353c11.443 1.395 16.111 3.584 16.111 7.546 0 .845-.304 2.003-1.388 3.11l-25.248 38.186V128a3.2 3.2 0 0 1-2.006 2.966c-2.46.99-4.931 1.482-7.453 1.482-2.49 0-5.027-.483-7.648-1.446A3.199 3.199 0 0 1 80.003 128v-5.472L55.44 83.718l-.02-.028-.025-.045-.477-.755.048-.032a3.25 3.25 0 0 1-.355-1.044ZM86.402 144v-9.6h-6.4v6.4h-6.4a3.2 3.2 0 0 0-2.46 5.248l16 19.2a3.203 3.203 0 0 0 4.918 0l16-19.2a3.198 3.198 0 0 0-2.458-5.248h-6.4v-6.4h-6.4v9.6a3.2 3.2 0 0 0 3.2 3.2h2.768l-9.168 11.002-9.17-11.002h2.77c1.767 0 3.2-1.434 3.2-3.2Zm118.398-6.4c0 42.346-34.454 76.8-76.802 76.8-42.344 0-76.798-34.454-76.798-76.8 0-11.706 2.566-22.94 7.622-33.395l5.763 2.787C59.952 116.57 57.6 126.867 57.6 137.6c0 38.816 31.583 70.4 70.398 70.4 38.819 0 70.402-31.584 70.402-70.4 0-38.82-31.583-70.4-70.402-70.4a70.95 70.95 0 0 0-12.246 1.06l-1.104-6.305a77.423 77.423 0 0 1 13.35-1.155c42.348 0 76.802 34.451 76.802 76.8Z" fill="#FFF"/>
</svg>
